X:1
T:Piangete occhi
T:Gemognano Capilupi da Modena
T:Source : Canzonette a tre voci di H.Vecchi et di G.Capilupi da Modena---Venetia---Ang.Gardano---1597. Editor : André Vierendeels (14/02/17).
T:Notes : Original clefs :  C1, C2, C4 Lute accompaniment is not added in this edition
T:Piangete occhi
T:©
T:©
T:©
C:Gemognano Capilupi da Modena
Z:©
%%score [ 1 2 3 ]
L:1/8
Q:1/4=120
M:2/2
K:F
V:1 treble nm="Soprano 1" snm="S 1"
V:2 treble nm="Soprano 2" snm="S 2"
V:3 treble-8 nm="Tenor" snm="T"
V:1
 d8 | d4 _e4- | e2 _e2 d4 | c8- | c4 d4 | B3 A G4- | G2 F2 E4 | D4 A4 | A2 A2 A2 A2 | B8- | %10
w: Pian-|get' oc-|* chi miei,|la-|* sci'ho-|mai _ _|_ pian- ge-|te, fa-|te co'l vo- stro|piant'|
w: Oc-|chi pri-|* vi del|vo-|* stro'a-|ma- * *|* to lu-|me, da-|te pur lo- co'al|la-|
 B4 _e4- | e4 d4- | d4 d4 | d2 e2 f2 ed | c2 A2 d4- | d4 ^c4 | d8 :: A2 A2 A4 | c2 d2 c4- | c4 z4 | %20
w: _ un|_ lar-|* go|fiu- * * * *|||me,|poi che vo-|stro bel sol,|_|
w: * gri-|* mar|_ so-|ven- * * * *|||te,|sin ch'il cor|pel do- lor|_|
 z2 G2 c4- | c2 B2 A4 | G4 z2 A2- | AA A2 B2 c2 | d4 z2 d2 | c6 B2 | A8 | G8 :| %28
w: piu non|_ ve- de-|te, poi|_ che'l vo- stro bel|sol, piu|non ve-|de-|te.|
w: ben si|_ con- su-|me, sin|_ ch'il cor pel do-|lor, ben|si con-|su-|me.|
V:2
 B8 | B4 B4- | B2 B2 B4 | A8- | A4 A4 | G3 F E2 D2 | ^C2 D4 C2 | D8 | z4 F4 | F2 G2 G2 G2 | G4 G4 | %11
w: Pian-|get' oc-|* chi miei,|la-|* sci'ho-|mai _ _ pian-|ge- * *|te,|fa-|te co'l vo- stro|piant' un|
w: Oc-|chi'un tem-|* po fe-|li|_ ci,|hor _ _ che|pre- sen- *|te,|piu|non mi- ra- te'il|bel guar-|
 B4 A4 | B2 c2 d2 c2 | B2 AG F2 G2 | A6 FE | E2 D2 E4 | D8 :: F2 F2 F4 | G2 B2 A4- | A4 z2 G2 | %20
w: lar- go|fiu- * * *||||me,|poi che vo-|stro bel sol,|_ piu|
w: do so-|a- * * *||||ve,|fa- te no-|to'il do- lor|_ che|
 c2 B2 A2 G2 | ^F2 G4 F2 | G4 z2 ^F2- | F^F F2 G2 A2 | B2 F2 F2 G2 | A2 G2 G4- | G4 ^F4 | G8 :| %28
w: non ve- de- *||te, poi|_ che'l vo- stro bel|sol, piu non ve-|de- * *||te.|
w: l'al- ma sen- *||te, fa-|* te no- to'il do-|lor, che l'al- ma|sen- * *||te.|
V:3
 B8 | G4 _E4- | E2 _E2 B,4 | F8- | F4 F4 | G4 G4 | A8 | D8 | z4 d4 | d2 _e2 e2 e2 | _E6 F2 | %11
w: Pian-|get' oc-|* chi miei,|la-|* sci'ho-|mai pian-|ge-|te,|fa-|te co'l vo- stro|piant' un|
w: E|tu mi-|* se- ro|cor|_ gia|non t'ag-|gra-|ve,|di|se- gui- ta- re'il|ca- ro'e|
 G4 ^F4 | G2 A2 B2 A2 | G2 FE D2 E2 | F6 ED | A8 | D8 :: d2 d2 d4 | c2 B2 f4- | f4 g4 | c4 c4 | %21
w: lar- go|fiu- * * *||||me,|poi che'l vo-|stro bel sol|_ piu|non ve-|
w: col- ce'og-|get- * * *||||to,|che di te|se'n por- to|_ se-|co la|
 d8 | G4 z2 D2- | DD D2 G2 F2 | B4 B,4 | C4 C4 | D8 | G8 :| %28
w: de-|te, poi|_ che'l vo- stro bel|sol piu|non ve-|de-|te.|
w: chia-|ve, che|_ di te se'n por-|to se-|co la|chia-|ve.|

